svgs/regular/notebook.svg

<svg xmlns="http://www.w3.org/2000/svg" viewBox="0 0 512 512"><!--! Font Awesome Pro 6.6.0 by @fontawesome - https://fontawesome.com License - https://fontawesome.com/license (Commercial License) Copyright 2024 Fonticons, Inc. --><path d="M240 48l176 0c8.8 0 16 7.2 16 16l0 384c0 8.8-7.2 16-16 16l-176 0 0-416zm-48 0l0 416-64 0c-8.8 0-16-7.2-16-16l0-32 24 0c13.3 0 24-10.7 24-24s-10.7-24-24-24l-24 0 0-88 24 0c13.3 0 24-10.7 24-24s-10.7-24-24-24l-24 0 0-88 24 0c13.3 0 24-10.7 24-24s-10.7-24-24-24l-24 0 0-32c0-8.8 7.2-16 16-16l64 0zM64 416l0 32c0 35.3 28.7 64 64 64l288 0c35.3 0 64-28.7 64-64l0-384c0-35.3-28.7-64-64-64L128 0C92.7 0 64 28.7 64 64l0 32L24 96C10.7 96 0 106.7 0 120s10.7 24 24 24l40 0 0 88-40 0c-13.3 0-24 10.7-24 24s10.7 24 24 24l40 0 0 88-40 0c-13.3 0-24 10.7-24 24s10.7 24 24 24l40 0z"/></svg>

<svg xmlns="http://www.w3.org/2000/svg" viewBox="0 0 512 512"><!--! Font Awesome Pro 6.4.0 by @fontawesome - https://fontawesome.com License - https://fontawesome.com/license (Commercial License) Copyright 2023 Fonticons, Inc. --><path d="M240 48H416c8.8 0 16 7.2 16 16V448c0 8.8-7.2 16-16 16H240V48zm-48 0V464H128c-8.8 0-16-7.2-16-16V416h24c13.3 0 24-10.7 24-24s-10.7-24-24-24H112V280h24c13.3 0 24-10.7 24-24s-10.7-24-24-24H112V144h24c13.3 0 24-10.7 24-24s-10.7-24-24-24H112V64c0-8.8 7.2-16 16-16h64zM64 416v32c0 35.3 28.7 64 64 64H416c35.3 0 64-28.7 64-64V64c0-35.3-28.7-64-64-64H128C92.7 0 64 28.7 64 64V96H24C10.7 96 0 106.7 0 120s10.7 24 24 24H64v88H24c-13.3 0-24 10.7-24 24s10.7 24 24 24H64v88H24c-13.3 0-24 10.7-24 24s10.7 24 24 24H64z"/></svg>
